app/icons/current_location.svg

<?xml version="1.0" encoding="UTF-8" standalone="no"?>
<!-- Created with Inkscape (http://www.inkscape.org/) -->

<svg
   width="32"
   height="32"
   viewBox="0 0 32 32"
   version="1.1"
   id="svg5"
   inkscape:version="1.1.2 (0a00cf5339, 2022-02-04)"
   sodipodi:docname="current_location.svg"
   xmlns:inkscape="http://www.inkscape.org/namespaces/inkscape"
   xmlns:sodipodi="http://sodipodi.sourceforge.net/DTD/sodipodi-0.dtd"
   xmlns="http://www.w3.org/2000/svg"
   xmlns:svg="http://www.w3.org/2000/svg">
  <sodipodi:namedview
     id="namedview7"
     pagecolor="#ffffff"
     bordercolor="#666666"
     borderopacity="1.0"
     inkscape:pageshadow="2"
     inkscape:pageopacity="0.0"
     inkscape:pagecheckerboard="0"
     inkscape:document-units="px"
     showgrid="false"
     inkscape:zoom="17.023335"
     inkscape:cx="14.127667"
     inkscape:cy="16.00744"
     inkscape:window-width="1920"
     inkscape:window-height="1051"
     inkscape:window-x="0"
     inkscape:window-y="0"
     inkscape:window-maximized="1"
     inkscape:current-layer="path6683"
     inkscape:snap-smooth-nodes="true"
     inkscape:snap-bbox="true"
     inkscape:snap-bbox-edge-midpoints="true" />
  <defs
     id="defs2" />
  <g
     inkscape:label="Layer 1"
     inkscape:groupmode="layer"
     id="layer1">
    <g
       id="path6683">
      <path
         id="path9432"
         style="color:#000000;fill:#000000;stroke-linecap:square;-inkscape-stroke:none"
         d="M 14.5 3.7988281 L 14.5 7.6367188 C 11.018972 8.2620731 8.2620728 11.018973 7.6367188 14.5 L 3.7988281 14.5 L 3.7988281 17.5 L 7.6367188 17.5 C 8.2620728 20.981027 11.018972 23.737927 14.5 24.363281 L 14.5 28.201172 L 17.5 28.201172 L 17.5 24.363281 C 20.981028 23.737927 23.737927 20.981027 24.363281 17.5 L 28.201172 17.5 L 28.201172 14.5 L 24.363281 14.5 C 23.737927 11.018973 20.981028 8.262073 17.5 7.6367188 L 17.5 3.7988281 L 14.5 3.7988281 z M 16 10.095703 C 19.276166 10.095703 21.904297 12.723836 21.904297 16 C 21.904297 19.276164 19.276166 21.904297 16 21.904297 C 12.723834 21.904297 10.095703 19.276164 10.095703 16 C 10.095703 12.723836 12.723834 10.095703 16 10.095703 z M 16 13 A 3 3 0 0 0 13 16 A 3 3 0 0 0 16 19 A 3 3 0 0 0 19 16 A 3 3 0 0 0 16 13 z " />
    </g>
    <g
       id="path6820">
      <path
         style="color:#000000;fill:#ffffff;fill-opacity:0.5;stroke-width:3;-inkscape-stroke:none"
         d="M 16,8.797905 V 3.7979049"
         id="path9424" />
    </g>
    <g
       id="path6820-9">
      <path
         style="color:#000000;fill:#ffffff;fill-opacity:0.5;stroke-width:3;-inkscape-stroke:none"
         d="m 16,28.202095 v -5"
         id="path9418" />
    </g>
    <g
       id="path6820-9-3">
      <path
         style="color:#000000;fill:#ffffff;fill-opacity:0.5;stroke-width:3;-inkscape-stroke:none"
         d="m 28.202097,16 h -5"
         id="path9412" />
    </g>
    <g
       id="path6820-9-3-6">
      <path
         style="color:#000000;fill:#ffffff;fill-opacity:0.5;stroke-width:3;-inkscape-stroke:none"
         d="m 8.7979026,16 h -5"
         id="path9406" />
    </g>
  </g>
</svg>

<?xml version="1.0" encoding="UTF-8" standalone="no"?>
<!-- Created with Inkscape (http://www.inkscape.org/) -->

<svg
   width="32"
   height="32"
   viewBox="0 0 32 32"
   version="1.1"
   id="svg5"
   inkscape:version="1.1.2 (0a00cf5339, 2022-02-04)"
   sodipodi:docname="current_location.svg"
   xmlns:inkscape="http://www.inkscape.org/namespaces/inkscape"
   xmlns:sodipodi="http://sodipodi.sourceforge.net/DTD/sodipodi-0.dtd"
   xmlns="http://www.w3.org/2000/svg"
   xmlns:svg="http://www.w3.org/2000/svg">
  <sodipodi:namedview
     id="namedview7"
     pagecolor="#ffffff"
     bordercolor="#666666"
     borderopacity="1.0"
     inkscape:pageshadow="2"
     inkscape:pageopacity="0.0"
     inkscape:pagecheckerboard="0"
     inkscape:document-units="px"
     showgrid="false"
     inkscape:zoom="17.023335"
     inkscape:cx="14.186409"
     inkscape:cy="16.007439"
     inkscape:window-width="1920"
     inkscape:window-height="1051"
     inkscape:window-x="0"
     inkscape:window-y="0"
     inkscape:window-maximized="1"
     inkscape:current-layer="layer1"
     inkscape:snap-smooth-nodes="true"
     inkscape:snap-bbox="true"
     inkscape:snap-bbox-edge-midpoints="true" />
  <defs
     id="defs2" />
  <g
     inkscape:label="Layer 1"
     inkscape:groupmode="layer"
     id="layer1">
    <path
       id="path9432"
       style="color:#000000;fill:#000000;stroke-linecap:square;-inkscape-stroke:none"
       d="M 14.5,3.7988281 V 7.6367188 C 11.018972,8.2620731 8.2620728,11.018973 7.6367188,14.5 H 3.7988281 v 3 H 7.6367188 C 8.2620728,20.981027 11.018972,23.737927 14.5,24.363281 v 3.837891 h 3 V 24.363281 C 20.981028,23.737927 23.737927,20.981027 24.363281,17.5 h 3.837891 v -3 H 24.363281 C 23.737927,11.018973 20.981028,8.262073 17.5,7.6367188 V 3.7988281 Z M 16,10.095703 c 3.276166,0 5.904297,2.628133 5.904297,5.904297 0,3.276164 -2.628131,5.904297 -5.904297,5.904297 -3.276166,0 -5.904297,-2.628133 -5.904297,-5.904297 0,-3.276164 2.628131,-5.904297 5.904297,-5.904297 z M 16,13 a 3,3 0 0 0 -3,3 3,3 0 0 0 3,3 3,3 0 0 0 3,-3 3,3 0 0 0 -3,-3 z" />
  </g>
</svg>
